X:1
T: Captain Dunne's March
C:
R:Reel
Q: 232
K:D
M:4/4
L:1/8
A|:D2 D2 DF AF|G2 E2 E3G|FA Bc dA FD|A2 AB AG FE|
D2 D2 DF AF|G2 E2 E3G|((3FGA) FD ((3EFG) EC|1D2 D2 D2 AF:|2D2 D2 D2 A2|
|:d2 d2 dA FD|G2 E2 E2 cd|e2 ef ed cB|AB cB AG FE|
D2 D2 DF AF|G2 E2 E2 G2|((3FGA) FD ((3EFG) EC|1D2 D2 D2 A2:|2D2 D2 D3||
